X:1
T: The Locomotive Hornpipe
C:
R:Reel
Q: 232
K:D
M:4/4
L:1/16
|:d3e|f3e d3c d3A F3A|f3e d3c d3A F3A|B3d g3f e3d c3d|((3e2f2d2) ((3c2d2B2) A3c d3e|
f3e d3c d3A F3A|f3e d3c B3d g3b|b3a ^g3a =g3e a3g|f4 d4 d4 c3d|
e3d c3d e4 a4|f3e d3e f4 a4|g3f g3a b3a g3f|((3e2f2e2) ((3d2c2B2) ((3A2B2A2) ((3G2F2E2) |
D3F A3d f3a f3d|g3f g3a b4 a3g|((3f2a2g2) ((3f2e2d2) ((3c2B2A2) ((3G2F2E2) |D4 d4 D4:|
